X:189
T:Pride of Kildare - Woodrich
%%VWML:SBG-1-2-254-0
F:http://www.vwml.org/record/SBG/1/2/254
Z:Original Sibelius transcriptions by M. & S. Graebe
M:3/4
I:linebreak $
K:F
V:1 treble nm="P1"
V:1
 C2 | A3 GBA | (GF) D3 F | CF F2 G2 | A6 FG | A3 GBA | (GF) D3 D |$ C2 F2 G G | F4 AB | c3 Adc | %10
 (cA) F2 AB | d2 c2 AF | G4 FG |$ A2 G2 BA | GF D2 FD | CF G2 G2 | F4 AB | c3 Adc | (cA) F2 dd |$ %19
 (cA) F2 cc | d2 c2 F F | G4 FG | A3 GBA | GF D2 FD | C2 F2 G G | F4 x2 | %26
T:Pride of Kildare - Parsons
F:http://www.vwml.org/record/SBG/1/2/254
Z:Original Sibelius transcriptions by M. & S. Graebe
M:6/8
I:linebreak $
K:F
V:1 treble nm="P1"
V:1
 C/F/ | A2 G c2 A | de c2 eA | c2 B A2 G | F4 F/G/ | A2 G c2 A | B2 c d2 A |$ c2 d A2 G | F4 A/B/ | %9
 c2 A d2 d | c3 A z G | d2 c A2 B/A/ | G4 FG | A2 G c2 A |$ c2 d _e2 z d | G2 ^F G2 A | B4 AB | %17
 c2 A d2 d | c2 A F2 z c |$ d2 c A2 G/E/ | G4 F/G/ | A2 ^G A2 B | d2 c A2 F/E/ | C2 F G2 A/G/ | %24
 F4 x2 | %25

